X:518
T: DER LENZ THUT SEINEN FREUDENGRUSS
N: F0991
O: Europa, Mitteleuropa, Deutschland
R: Natur -, Jahreszeiten - Lied, Fruehling
M: 2/4
L: 1/16
K: C
C,2 | E,2G,2C2G,2 | E3DC2
G,2 | A,4B,4 | C6
E2 | D2B,2B,2G,2 | C4B,2
E2 | D2B,2C2B,2 | A,4G,2z2 | z2
G,2G,3G, | G,3G,G,2G,2 | C2
G,2E,2C,2 | G,8 | z2
G,2G,3G, | G,3G,G,2G,2 | C2
G,2E,2C,2 | G,6
E2 | E2C2C2G,2 | A,4G,2
C2 | G,2E,2F,2E,2 | D,4C,2
C,2 | E,2G,2C2G,2 | E3DC2
G,2 | A,4B,4 | C6
E2 | D2C2B,2A,2 | G,3F,E,2
G,2 | A,2B,2C2D2 | E4D4 | C6

